public/avatar/shoe/50.svg

<svg xmlns:xlink="http://www.w3.org/1999/xlink" height="38.3" width="36.05" xmlns="http://www.w3.org/2000/svg"><use height="19.05" transform="translate(13 14.55)" width="21.25" xlink:href="#a"/><defs><g id="a"><path d="M16.5 6.05q-2.15-5.65-9.05-5-5.55.55-5 5.25l-1 .3q-.8.3-.2 3.65.65 3.05 1.15 3.85 2.6 3.5 3.3 3.7 1.85.6 7.9-.15 2.55-.3 4.3-1.65l1.65-1.65.55-.65-.05-.2.2-1.4q0-.5-1.35-1.7-.3-.95-1.5-2.55.7-1-.65-1.75l-.25-.05Z" fill="none" stroke="#4c4c4c" stroke-linecap="round" stroke-linejoin="round" stroke-width="2"/><path d="M4.95 7.75q4.45 2.85 4.5 4.05.25 1.95-2.35 3.9-1.75 1.35-4.3 1.65-6.05.75-7.9.15-.7-.2-3.3-3.7-.5-.8-1.15-3.85-.6-3.35.2-3.65 3-1.35 8.65-1.35 1.4 0 5.65 2.8" fill="#fffdf2" fill-rule="evenodd" transform="translate(10.8 .3)"/><path d="m5.15 9.2 2.35 1.4 1.05 1q.4.85-1.35 1.35l-2.8.55H2.85l-1.05.55q-1.7.7-4.65-.8l-2.05-1.6-2.15-1.6-1.2-2.1-.25-1.2.35-1L-7 5.4l1.95-.2 2.6.35 4 1.8 3.6 1.85" fill="#dbd9cc" fill-rule="evenodd" transform="translate(10.8 .3)"/><path d="m4.5 17.1-10 .35 2.6-.95q1.8-.85 3.4-2.05L4.95 14q2.4-.35 4.5-1.3-.25 1.35-1.8 2.75-1.5 1.4-3.15 1.65" fill="#e0d8cd" fill-rule="evenodd" transform="translate(10.8 .3)"/><path d="M2.6 12.7q-1.9 2.15-4.55.25Q-7.3 9-8.2 6.75q-.65-1.65.25-3.35 1.2-2.35 4.6-2.65 6.2-.55 9.5 6l1.6 2.45q.85 1.6.3 2.55-.65.95-5.45.95" fill="#fff" fill-rule="evenodd" transform="translate(10.8 .3)"/><path d="M2.3 5.7 3.15 8q.9 1.3 3.25 3.2 2.45 2.25 4.4 2.4 1.8.15 4.8-.85l2.15-.15q1.5-.55 1.3-1.85L18.1 8.6l-1.15-1.55" fill="none" stroke="#a8a79d" stroke-linecap="round" stroke-linejoin="round" stroke-width=".5"/><path d="m3.8 10.35-2.15-1.4Q.6 8.4-1.7 8.25q-2.7-.1-3.6.85l-1.05 1.2q-1.15 0-.7-.7 1.1-2.1 3.6-2.75Q0 6 3.8 8.75l.95 1q.5.95-.05 1.15-.55.2-.9-.55" fill="#de0000" fill-rule="evenodd" transform="translate(10.8 .3)"/><path d="M3.85 9.5q-.4-4.6 2.1-3.7.45.1.65.85.25.8-.05.95-.6-1.1-1.2-1-.6.2-.4 3.8.05.9-.45.5-.5-.3-.65-1.4" fill="#de0000" fill-rule="evenodd" transform="translate(10.8 .3)"/><path d="m-9.55 6.3.65 2.15 3.9 3.9Q-3.2 14-1.2 14.5q-.2.7-.95 1.45-1.55 1.8-3.35 1.5l-2.45-2.85Q-9.05 13-9.6 9.7q-.5-2.5.05-3.35V6.3" fill="#f2e9dc" fill-rule="evenodd" transform="translate(10.8 .3)"/><path d="M2.55 2.35q0 .65-1.9 1.3l-3.1.2-2.9-.2Q-7 4-7 8.25L-8.5 5.8l.35-2.1Q-7.65 2-4.5.85q2.7-1 5.25.25 1.85.9 1.8 1.25" fill="#dfe8eb" fill-rule="evenodd" transform="translate(10.8 .3)"/></g></defs></svg>

<?xml version="1.0" encoding="UTF-8" standalone="no"?>
<svg xmlns:xlink="http://www.w3.org/1999/xlink" height="38.3px" width="36.05px" xmlns="http://www.w3.org/2000/svg">
  <g transform="matrix(1.0, 0.0, 0.0, 1.0, 23.8, 14.85)">
    <use height="19.05" transform="matrix(1.0, 0.0, 0.0, 1.0, -10.8, -0.3)" width="21.25" xlink:href="#shape0"/>
  </g>
  <defs>
    <g id="shape0" transform="matrix(1.0, 0.0, 0.0, 1.0, 10.8, 0.3)">
      <path d="M5.7 5.75 Q3.55 0.1 -3.35 0.75 -8.9 1.3 -8.35 6.0 L-9.35 6.3 Q-10.15 6.6 -9.55 9.95 -8.9 13.0 -8.4 13.8 -5.8 17.3 -5.1 17.5 -3.25 18.1 2.8 17.35 5.35 17.05 7.1 15.7 L8.75 14.05 9.3 13.4 9.25 13.2 9.45 11.8 Q9.45 11.3 8.1 10.1 7.8 9.15 6.6 7.55 7.3 6.55 5.95 5.8 L5.7 5.75 Z" fill="none" stroke="#4c4c4c" stroke-linecap="round" stroke-linejoin="round" stroke-width="2.0"/>
      <path d="M4.95 7.75 Q9.4 10.6 9.45 11.8 9.7 13.75 7.1 15.7 5.35 17.05 2.8 17.35 -3.25 18.1 -5.1 17.5 -5.8 17.3 -8.4 13.8 -8.9 13.0 -9.55 9.95 -10.15 6.6 -9.35 6.3 -6.35 4.95 -0.7 4.95 0.7 4.95 4.95 7.75" fill="#fffdf2" fill-rule="evenodd" stroke="none"/>
      <path d="M5.15 9.2 L7.5 10.6 8.55 11.6 Q8.95 12.45 7.2 12.95 L4.4 13.5 2.85 13.5 1.8 14.05 Q0.1 14.75 -2.85 13.25 L-4.9 11.65 -7.05 10.05 -8.25 7.95 -8.5 6.75 -8.15 5.75 -7.0 5.4 -5.05 5.2 -2.45 5.55 1.55 7.35 5.15 9.2" fill="#dbd9cc" fill-rule="evenodd" stroke="none"/>
      <path d="M4.5 17.1 L-5.5 17.45 -2.9 16.5 Q-1.1 15.65 0.5 14.45 L4.95 14.0 Q7.35 13.65 9.45 12.7 9.2 14.05 7.65 15.45 6.15 16.85 4.5 17.1" fill="#e0d8cd" fill-rule="evenodd" stroke="none"/>
      <path d="M2.6 12.7 Q0.7 14.85 -1.95 12.95 -7.3 9.0 -8.2 6.75 -8.85 5.1 -7.95 3.4 -6.75 1.05 -3.35 0.75 2.85 0.2 6.15 6.75 L7.75 9.2 Q8.6 10.8 8.05 11.75 7.4 12.7 2.6 12.7" fill="#ffffff" fill-rule="evenodd" stroke="none"/>
      <path d="M-8.5 5.4 L-7.65 7.7 Q-6.75 9.0 -4.4 10.9 -1.95 13.15 0.0 13.3 1.8 13.45 4.8 12.45 L6.95 12.3 Q8.45 11.75 8.25 10.45 L7.3 8.3 6.15 6.75" fill="none" stroke="#a8a79d" stroke-linecap="round" stroke-linejoin="round" stroke-width="0.5"/>
      <path d="M3.8 10.35 L1.65 8.95 Q0.6 8.4 -1.7 8.25 -4.4 8.15 -5.3 9.1 L-6.35 10.3 Q-7.5 10.3 -7.05 9.6 -5.95 7.5 -3.45 6.85 0.0 6.0 3.8 8.75 L4.75 9.75 Q5.25 10.7 4.7 10.9 4.15 11.1 3.8 10.35" fill="#de0000" fill-rule="evenodd" stroke="none"/>
      <path d="M3.85 9.5 Q3.45 4.9 5.95 5.8 6.4 5.9 6.6 6.65 6.85 7.45 6.55 7.6 5.95 6.5 5.35 6.6 4.75 6.8 4.95 10.4 5.0 11.3 4.5 10.9 4.0 10.6 3.85 9.5" fill="#de0000" fill-rule="evenodd" stroke="none"/>
      <path d="M-9.55 6.3 L-8.9 8.45 -5.0 12.35 Q-3.2 14.0 -1.2 14.5 -1.4 15.2 -2.15 15.95 -3.7 17.75 -5.5 17.45 L-7.95 14.6 Q-9.05 13.0 -9.6 9.7 -10.1 7.2 -9.55 6.35 L-9.55 6.3" fill="#f2e9dc" fill-rule="evenodd" stroke="none"/>
      <path d="M2.55 2.35 Q2.55 3.0 0.65 3.65 L-2.45 3.85 -5.35 3.65 Q-7.0 4.0 -7.0 8.25 L-8.5 5.8 -8.15 3.7 Q-7.65 2.0 -4.5 0.85 -1.8 -0.15 0.75 1.1 2.6 2.0 2.55 2.35" fill="#dfe8eb" fill-rule="evenodd" stroke="none"/>
    </g>
  </defs>
</svg>
